X:20
M:3/4
L:1/8
Q:"Allegretto  "1/4=200
K:F
!p!C2|[F3A,3] A c2|(c2A2d2)|(c2A2f2)|(c2A2G2)|\
(F3 A c2)|(c2A2[F2A,2])|C2 A3 [GB,]|[F4A,4]:|]
c2|[f2A2]e2f2|[d2B2]e2[f2A2]|[d2B2]g2[f2=B2]|([e2c2]d2c2)|\
([f2A2]e2f2)|[d2B2][c2A2][B2G2]|\
[A2F2][G2=B,2][F2D2]|[c4E4]c2|
[B2F2D2]d2[B2E2]|[A2F2]c2[f2A2]|\
[c2F2A,2]A2[F2D2B,2]|[A2F2C2][G2E2C2][e2G2C2]|\
[f3B3F3D3] d [B2F2D2]|[c3A3F3] A [F2A,2]|\

